X:1
T:Red Wing
C:Kerry Mills
L:1/8
M:2/4
I:linebreak $
K:G
V:1 treble
V:1
 D2 |:"G" G>G GB | d3 B |"C" ce ge |"G" d3 B |"D7" cc/B/ Ac |"G" BB/A/ GB |1"A7" AE FG |$
 "D"AA/F/ DD :|2 "A7" AE "D" F/E/D |"G" G2 gf |: "C"e2 e>e | eg fe |"G" d2 B2- | Bd ed |$
 |1 "D7"d2 A2- | Ad ed |"G" d2 B2- | B2 gf :|2 "D7" d2 A2- | Ac BA |"G" G4- | G2 z D |]
